svg/24/chevrons-down-decrease.svg

<svg width="24" height="24" viewBox="0 0 24 24" fill="currentColor" xmlns="http://www.w3.org/2000/svg"><path d="M7.28033 6.21967C6.98744 5.92678 6.51256 5.92678 6.21967 6.21967C5.92678 6.51256 5.92678 6.98744 6.21967 7.28033L11.4697 12.5303C11.7626 12.8232 12.2374 12.8232 12.5303 12.5303L17.7803 7.28033C18.0732 6.98744 18.0732 6.51256 17.7803 6.21967C17.4874 5.92678 17.0126 5.92678 16.7197 6.21967L12 10.9393L7.28033 6.21967Z"/><path d="M7.28033 11.2197C6.98744 10.9268 6.51256 10.9268 6.21967 11.2197C5.92678 11.5126 5.92678 11.9874 6.21967 12.2803L11.0137 17.0744C11.0534 16.461 11.1781 15.8708 11.3762 15.3155L7.28033 11.2197Z"/><path fill-rule="evenodd" clip-rule="evenodd" d="M23 17.5C23 20.5376 20.5376 23 17.5 23C14.4624 23 12 20.5376 12 17.5C12 14.4624 14.4624 12 17.5 12C20.5376 12 23 14.4624 23 17.5ZM14.0001 17.5C14.0001 17.2239 14.2239 17 14.5001 17H20.5001C20.7762 17 21.0001 17.2239 21.0001 17.5C21.0001 17.7761 20.7762 18 20.5001 18H14.5001C14.2239 18 14.0001 17.7761 14.0001 17.5Z"/></svg>

<svg xmlns="http://www.w3.org/2000/svg" width="24" height="24" fill="currentColor" viewBox="0 0 24 24">
  <path d="M7.28 6.22a.75.75 0 0 0-1.06 1.06l5.25 5.25a.75.75 0 0 0 1.06 0l5.25-5.25a.75.75 0 0 0-1.06-1.06L12 10.94 7.28 6.22Zm0 5a.75.75 0 0 0-1.06 1.06l4.794 4.794c.04-.613.164-1.203.362-1.759L7.28 11.22Z"/>
  <path fill-rule="evenodd" d="M23 17.5a5.5 5.5 0 1 1-11 0 5.5 5.5 0 0 1 11 0Zm-9 0a.5.5 0 0 1 .5-.5h6a.5.5 0 0 1 0 1h-6a.5.5 0 0 1-.5-.5Z" clip-rule="evenodd"/>
</svg>
